X: 13
T:Housework
M:2/4
L:1/8
Q:240
C:Alan Muggeridge
K:D
z4A4|:"D"FD3-|D2zD|D2B,A,|D4|AF3-|F2zF|F>F GF|A4|!
FA2A |"G"Bd2e|"D"d4-|d2zd|d2BA |FDzF|"A"FE DC| "D"D4-|D2z2:||!
"A"zAAA|AAFE|AAA^G|A2z2|"G"BBBB|B2AG|B4-|B3B|!
"E"B2BB|^GEEE|B2BB|^G3z|"A"ecdB|cABc|A4:||
